X: 191
T: Bahar Oldu Beyim
C: Şeyh Ethem Efendi
O: Turkey
F: http://compmusic.upf.edu/node/140
N: huzzam--sarki--turkaksagi--bahar_oldu--seyh_ethem_efendi
N: makam= huzzam
N: form= sarki
N: usul= turkaksagi = 5/8
M: 5/8
L: 1/16
K: C _1/4B _3/4e ^3/4f 
Q: 1/4=156
%%MIDI tuningsystem comma53
G2A2 B2A2 G2 | A2 B2c2 B2A2  | B2c2 d2e2 c2 | \
w:  ARANAĞME  |   |   | 
B2 c2d4z2  | c2d2 e2d2 c2 | 
w:   |   | 
d2 e2f2 e2d2  | c2d2 e2d2 c2 | B2 ^A2B4z2  | \
w:   |   |   | 
G2A2 B2A2 G2 | A2 B2c2 B2A2  | 
w:  ARANAĞME  |   | 
B2c2 d2e2 c2 | B2 c2d4z2  | c2d2 e2d2 c2 | \
w:   |   |   | 
d2 e2f2 e2d2  | c2d2 e2d2 c2 | 
w:   |   | 
B2 ^A2B4z2  | B4 B4 G2 | B2 c2d4c2  | d2e2 f4 e2 | \
w:   |  Ba har  |  ol *  du  |  be *  yim  | 
d2 c2d6  | d2c2 d2e2 f2 | 
w:  ev  |  de  | 
g2 a2f2 e2d2  | a2g2 f2e2 d2 | d2 c2B2 A2G2  | \
w:   |  du *  rul  |  maz  | 
B4 B4 G2 | B2 c2d4c2  | 
w:  Ba har  |  ol *  du  | 
d2e2 f4 e2 | d2 c2d6  | d2c2 d2e2 f2 | g2 a2f2 e2d2  | \
w:  be *  yim  |  ev  |  de  |   | 
a2g2 f2e2 d2 | 
w:  du *  rul  | 
d8z2  | f4 g4 f2 | ed e2f4z2  | g4 f2e2 d2 | d8-d2  | \
w:  maz  |  Bu mev  |  sim *  *  de  |  çe men  |  za  | 
e2d2 c2B2 c2 | 
w:  re  | 
d2 e2g2 f2e2  | d2e2 d2c2 B2 | d4c4B2  | \
w:   |  do *  yul  |  maz  | 
B4 d4 B2 | c2 B2A4B2  | c4 B2A2 G2 | 
w:  Bu mev  |  sim *  de  |  çe men  | 
G8-G2  | g2f2 g2e2 d2 | d2 e2f2 e2d2  | \
w:  za  |  re  |   | 
d2e2 d2c2 B2 | B8z2  | f4 f2=e2 d2 | 
w:  do *  yul  |  maz  |  Ge zer  | 
=e2 f2g2 f2e2  | f2g2 _7/8b2_1/4b2 c'2 | \
w:  bül *  bül  |  gi *  bi  | 
b2 ^a2b6  | f2g2 a2b2 d'2 | c'2 ^a2=a2 g2f2  | 
w:  gön  |  lüm  |   | 
g4 f2e2 d2 | d2 c2B2 ^A2B2  | f4 f2=e2 d2 | \
w:  yo rul  |  maz  |  Ge zer  | 
=e2 f2g2 f2e2  | f2g2 _7/8b2_1/4b2 c'2 | 
w:  bül *  bül  |  gi *  bi  | 
b2 ^a2b6  | f2g2 a2b2 d'2 | c'2 ^a2=a2 g2f2  | \
w:  gön  |  lüm  |   | 
g4 f2e2 d2 | d8z2  | f4 g4 f2 | 
w:  yo rul  |  maz  |  Bu mev  | 
ed e2f4z2  | g4 f2e2 d2 | d8-d2  | e2d2 c2B2 c2 | \
w:  sim *  *  de  |  çe men  |  za  |  re  | 
d2 e2g2 f2e2  | 
w:   | 
d2e2 d2c2 B2 | d4c4B2  | B4 d4 B2 | c2 B2A4B2  | \
w:  do *  yul  |  maz  |  Bu mev  |  sim *  de  | 
c4 B2A2 G2 | G8-G2  | 
w:  çe men  |  za  | 
g2f2 g2e2 d2 | d2 e2f2 e2d2  | d2e2 d2c2 B2 | \
w:  re  |   |  do *  yul  | 
B8z2  | |


